X: 112204
Q: "Reel."
M: C
L: 1/8
K: Em
ue |\
uB |\
egfe B/B/B (eB) | defe d/d/d (fd) |
egfe dBAF | GBAF E/E/E (EB) |\
egfe B/B/B (eB) | defe d/d/d (fd) |\
egfg efde | BdAF E/E/E "_Fine."E |]



